X:392
T:Willow's Way
R:polka 32 schottische
M:4/4
L:1/8
R:Schottische
O:Swedish
S:Recorded by Mel Biggs from the playing of Jim from Stroud Ladies/Lassington Oak
N:Written to accompany One For Dan, according to Jim
Z:Melanie Biggs
K:G
g3 f g3 f|edeg B3d|cBAB cdef|gBc^c d2 ef|g3 f g3 f|edeg B3d|cBAB cdef|g2 gf gdef:|
g2 fe c2 c2|g2 fe B3 d|cBAB cdef|gBc^c d2 ef|g2 fe c2 c2|g2 fe B3d|cBAB cdef|g2 gf gdef:|

